X: 96
T:The Flight
% Nottingham Music Database
S:Trad, arr Phil Rowe
M:6/8
K:C
G|"C"ced ced|c2G G2F|"C"EGc "F"ABc|"Dm"dfe "G"d2G|
"C"ced ced|c2G G2F|"C"EGc "G7"GcB|"C"c3 -c2:|
g|"C"g2e ceg|"F"a2f "G"def|"C"g2c B2c|"G"dBG G2g|
"C"g2e ceg|"F"a2f "G"def|"C"gec "G7"GcB|"C"c3 -c2:|<end>
<start>
